X: 305535
M: 6/8
L: 1/8
K: Bb
|:\
[B2D2][BD] [B2D2]z | f2e dcB | [A2E2][AE] [A2E2]z | e2d cBA |\
|: B |\
e2c B2A | Bdf f=ef | _e2c B2A | Bdf f2z |\
g2b agf | e2g fed | cde cAF | [B3D3] [B2D2] :|


